app/dist/common/images/team.svg

<svg height="18" viewBox="0 0 18 18" width="18" xmlns="http://www.w3.org/2000/svg"><path d="m0 0h18v18h-18z" fill="#f0f3fa"/><path d="m16 6h-14v6h14zm-12 1.8h-1v-.8h2.75v.8h-1.02v3.2h-.73zm4.33 1.6h-1.58v.8h1.58v.8h-2.33v-4h2.33v.8h-1.58v.8h1.58zm.5 1.6.67-4h1.32l.68 4h-.88l-.1-.8h-.58l-.08.8h-1.04zm1.4-3.2-.2 1.6h.42zm3.22 1.4.46-2.2h1.09v4h-.73v-3l-.36 3h-.82l-.36-3v3h-.73v-4h1.1z" fill="#0075c9"/></svg>

<!-- by TradingView --><svg width="18" height="18" viewBox="0 0 18 18" xmlns="http://www.w3.org/2000/svg"><path fill="#F0F3FA" d="M0 0h18v18H0z"/><path d="M16 6H2v6h14V6ZM4 7.8H3V7h2.75v.8H4.73V11H4V7.8Zm4.33 1.6H6.75v.8h1.58v.8H6V7h2.33v.8H6.75v.8h1.58v.8Zm.5 1.6.67-4h1.32l.68 4h-.88l-.1-.8h-.58l-.08.8H8.82Zm1.4-3.2-.2 1.6h.42l-.22-1.6Zm3.22 1.4.46-2.2H15v4h-.73V8l-.36 3h-.82l-.36-3v3H12V7h1.1l.35 2.2Z" fill="#0075C9"/></svg>
